X:1
T:Title
%%score { ( 1 3 5 ) | ( 2 4 ) }
L:1/8
M:4/4
K:Bb
V:1 treble nm="Grand Piano"
V:3 treble 
V:5 treble 
V:2 bass 
V:4 bass 
V:1
 z4 z2[Q:1/4=94] [DB]>[Ec] | [Fd]3 [B,FB] [B,GB]2 [B,EG]2 | [DF]6 [DFB]>[DFB] | B>A A>B c2 c>c | %4
 [Ec]>[DB] [FB]>c d2 [Fd]>[Fd] | [Fd]3 [B,FB] [B,GB]2 [B,EG]2 | [DF]6 [DFB]>[DFB] | %7
 B>A A>G (3FFF G>A |[M:3/4] [B,DB]6 |[M:1/4] F>B |[M:4/4] [Fd]4 z4 | c6[K:bass][K:treble] z2 | %12
 c4 z4 | [DB]6[K:bass][K:treble] z2 | [EG]->[B,E-G-] [B,E-G-]>[B,EG] [Ge]2 A>G | %15
 [DF]->[B,D-F-] [B,D-F-]>[B,D-F] [DB]2 [DB]>[Ec] | [Fd]>[Fd] [Ec]>[DB] (3FFF G>A |[M:3/4] [DB]6 |] %18
V:2
 z4 z2 [B,,F,]>[B,,F,] | [B,,B,]3 D, E,2 G,2 | B,6 B,,>B,, | %3
 [F,DF]>[F,CF] [F,CF]>[F,DF] [F,EF]2 [F,A,E]>[F,A,E] | %4
 [B,,F,]>[B,,F,] [D,B,]>[K:treble][F,A,F] [B,F]2[K:bass] [B,,B,]>[B,,B,] | [B,,B,]3 D, E,2 G,2 | %6
 B,6 B,,>B,, | [F,DF]>[F,CF] [F,CF]>[F,B,E] (3[F,A,E][F,A,E][F,A,E] [F,B,E]>[F,CE] |[M:3/4] B,,6 | %9
[M:1/4] D>D |[M:4/4] [B,,B,]>B,, B,,>B,, z z/[K:treble] F/ E>D | (3[F,A,E-][F,E-][F,E-] E4 E>E | %12
 E->[F,E-] [F,E-]>[F,E] F>E D>C | (3[B,,F,]B,,B,, B,,>B,, B,,2[K:treble] D>F | %14
 E,>E, E,>E, [E,B,]2[K:treble] F>E | B,,>B,, B,,>B,, [B,,F,]2 [B,,F,]>[B,,F,] | %16
 [B,,B,]>[B,,B,] [B,,F,]>[B,,F,] (3[F,A,C][F,A,C][F,A,C] [F,B,E]>[F,CE] |[M:3/4] [B,,B,]6 |] %18
V:3
 x8 | x8 | x8 | x8 | x8 | x8 | x8 | x8 |[M:3/4] x6 |[M:1/4] x2 |[M:4/4] z z/ B,/ B,>B, [Ge]>d c>B | %11
 (3z[K:bass] A,A, z2 z2[K:treble] F>A | z z/ A,/ A,>A, d>c B>A | %13
 (3z[K:bass] F,F, z2 z2[K:treble] B>A | B,2 z2 z4 | B,2 z2 z4 | x8 |[M:3/4] x6 |] %18
V:4
 x8 | x8 | x8 | x8 | x7/2[K:treble] x5/2[K:bass] x2 | x8 | x8 | x8 |[M:3/4] x6 |[M:1/4] x2 | %10
[M:4/4] z4 [B,,B,]2[K:treble] z2 | z2 F,>F, F,2 z2 | [F,A,]2 z2 [F,A,]2 z2 | x6[K:treble] x2 | %14
 x6[K:treble] x2 | x8 | x8 |[M:3/4] x6 |] %18
V:5
 x8 | x8 | x8 | x8 | x8 | x8 | x8 | x8 |[M:3/4] x6 |[M:1/4] x2 |[M:4/4] x8 | %11
 z2[K:bass] A,>A, A,2[K:treble] z2 | x8 | z2[K:bass] F,>F, F,2[K:treble] z2 | x8 | x8 | x8 | %17
[M:3/4] x6 |] %18

